X: 38611
T: Stoney Lake
R: reel
M: 4/4
K: Gminor
B2GB DBGB|A2^FA DAFA|G2DG BDGB|edc=B dcBd|
c2Gc EcGc|A,CEA ecAc|dFBd cFAc|BDE=E FGAc|
B2FB dBAG|^F2eF dFAF|B2GB dDGB|edc=B dcBd|
c2Gc EcGc|A,CEA ecAc|dFBd cFAc|BDE=E FGAc||
B/c/dfd bfdb|a^fda d'fga|b/c'/bab gfdf|gfed fedc|
e2de ceBe|A,CEA ecAc|dFBd cFAc|BDE=E FGAc|
B/c/dfd bfdb|a^fda d'fga|b/c'/bab gfdf|gfed fedc|
e2de ceBe|A,CEA ecAc|dFBd cFAc|BbfdB2GA||
B2GB dg^f=e|dcc=Bc2A_B|c2A^F dbca|BgAf edcA|
B2GB dg^f=e|dcc=Bc2A_B|c2AF ^Fca^f|g4g2GA|
B2GB dg^f=e|dcc=Bc2A_B|c2A^F dbca|BgAf edcA|
B2ABd2^cd|g2^fgb4|abc'a ^fd'c'a|b4a4||

